X: 9
T: Liza Jane
R: Reel
M: C|
L: 1/16
Q:1/4=120
K: A
e2|"A"a2f2 e2c2 | fecB A2>e2 | a2f2 e2c2 | "F#m"f4 f2>e2 | "A"a2f2 e2c2 | \
fecB A2B2 | cBAF "E7"E2F2 | "A"A6 :| 
B2|"A"c4 c3B | B2A2- A2>B2 | \
c3B cBA2 | "F#m"F6 E2 | "A"F2A2 B2AB | c2c2 B2AB | cBAF "E7"E2F2 | "A"A6 :|

%%newpage

